!!!SOCIAL_FUNCTION:	initiation songs of the first and second degrees
!!!PDT:	1909
!!!OTL: No_12_Second_Initiation_Song.krn
!!!REG: Great_Lakes
!!!LANG: Non-Tone
!!!LING_GROUP: Algonquin
**kern	**kern
*staff2	*staff1
=1-	=1-
*clefF4	*clefF4
*k[b-e-a-d-]	*k[b-e-a-d-]
*M2/4	*M2/4
8GG/L	8c\L
8GG/J	8c\J
8GG/L	8c\L
8GG/J	8c\J
=2	=2
8GG/L	2c\
8GG/J	.
8GG/L	.
8GG/J	.
=3	=3
2r	2c\
=4	=4
2r	8c\L
.	8c\J
.	8c\L
.	8B-\J
=5	=5
2r	2B-\
=6	=6
2r	8c\L
.	8c\J
.	8c\L
.	8B-\J
=7	=7
2r	2B-\
=8	=8
2r	2B-\
=9	=9
2r	8B-\L
.	8A-\J
.	8A-\L
.	8F\J
=10	=10
2r	2F\
=11	=11
2r	8c\L
.	8c\J
.	8c\L
.	8B-\J
=12	=12
2r	2B-\
=13	=13
2r	2B-\
=14	=14
2r	8B-\L
.	8A-\J
.	8A-\L
.	8F\J
=15	=15
2r	2F\
=16	=16
2r	8A-\L
.	8B-\J
.	8A-\L
.	8F\J
=17	=17
2r	2F\
=18	=18
2r	2F\
=19	=19
2r	8F/L
.	8C/J
.	8C/L
.	8C/J
=20	=20
2r	2C/
=21	=21
2r	8C/L
.	8C/J
.	8C/L
.	8C/J
=22	=22
2r	[2C/
=23	=23
2r	2C/]
==	==
*-	*-
